src/lib/packages/icons/src/assets/line/share.svg

<svg width="24" height="24" viewBox="0 0 24 24" fill="none" xmlns="http://www.w3.org/2000/svg">
<path d="M18 14.25C16.642 14.25 15.461 14.983 14.803 16.068L9.47192 13.403C9.64792 12.969 9.75 12.497 9.75 12C9.75 11.503 9.64792 11.031 9.47192 10.597L14.803 7.93201C15.461 9.01601 16.642 9.75 18 9.75C20.067 9.75 21.75 8.068 21.75 6C21.75 3.932 20.067 2.25 18 2.25C15.933 2.25 14.25 3.932 14.25 6C14.25 6.173 14.278 6.33901 14.301 6.50601L8.63599 9.33801C7.95799 8.66601 7.02702 8.25 5.99902 8.25C3.93202 8.25 2.24902 9.932 2.24902 12C2.24902 14.068 3.93202 15.75 5.99902 15.75C7.02602 15.75 7.95799 15.333 8.63599 14.662L14.301 17.494C14.278 17.661 14.25 17.827 14.25 18C14.25 20.068 15.933 21.75 18 21.75C20.067 21.75 21.75 20.068 21.75 18C21.75 15.932 20.067 14.25 18 14.25ZM18 3.75C19.24 3.75 20.25 4.759 20.25 6C20.25 7.241 19.24 8.25 18 8.25C16.76 8.25 15.75 7.241 15.75 6C15.75 4.759 16.76 3.75 18 3.75ZM6 14.25C4.76 14.25 3.75 13.241 3.75 12C3.75 10.759 4.76 9.75 6 9.75C7.24 9.75 8.25 10.759 8.25 12C8.25 13.241 7.24 14.25 6 14.25ZM18 20.25C16.76 20.25 15.75 19.241 15.75 18C15.75 16.759 16.76 15.75 18 15.75C19.24 15.75 20.25 16.759 20.25 18C20.25 19.241 19.24 20.25 18 20.25Z" fill="currentColor"/>
</svg>

<svg xmlns="http://www.w3.org/2000/svg" width="24" height="24" fill="none"><path fill="currentColor" d="M18 14.25a3.738 3.738 0 0 0-3.197 1.818l-5.331-2.665c.176-.434.278-.906.278-1.403s-.102-.969-.278-1.403l5.331-2.665A3.74 3.74 0 0 0 18 9.75 3.755 3.755 0 0 0 21.75 6 3.755 3.755 0 0 0 18 2.25 3.755 3.755 0 0 0 14.25 6c0 .173.028.339.051.506L8.636 9.338A3.735 3.735 0 0 0 5.999 8.25 3.755 3.755 0 0 0 2.249 12a3.755 3.755 0 0 0 3.75 3.75 3.74 3.74 0 0 0 2.637-1.088l5.665 2.832c-.023.167-.051.333-.051.506A3.755 3.755 0 0 0 18 21.75 3.755 3.755 0 0 0 21.75 18 3.755 3.755 0 0 0 18 14.25Zm0-10.5c1.24 0 2.25 1.009 2.25 2.25S19.24 8.25 18 8.25A2.253 2.253 0 0 1 15.75 6c0-1.241 1.01-2.25 2.25-2.25ZM6 14.25A2.253 2.253 0 0 1 3.75 12c0-1.241 1.01-2.25 2.25-2.25S8.25 10.759 8.25 12 7.24 14.25 6 14.25Zm12 6A2.253 2.253 0 0 1 15.75 18c0-1.241 1.01-2.25 2.25-2.25s2.25 1.009 2.25 2.25-1.01 2.25-2.25 2.25Z"/></svg>
